public/assets/icon_home.svg

<svg fill="none" height="13" viewBox="0 0 11 13" width="11" xmlns="http://www.w3.org/2000/svg"><path d="m1.375 11.5585h2.0625v-3.42861c0-.19428.066-.35703.198-.48823s.29517-.19703.4895-.19748h2.75c.19479 0 .35819.06583.49019.19748.132.13166.19777.2944.19731.48823v3.42861h2.0625v-6.17146l-4.125-3.08572-4.125 3.08572zm-1.375 0v-6.17146c0-.21715.0488124-.42286.146437-.61715.097625-.19428.232146-.35428.403563-.48l4.125-3.08571c.24062-.18286.51562-.274287.825-.274287.30937 0 .58437.091427.825.274287l4.125 3.08571c.1719.12572.3066.28572.4042.48.0977.19429.1463.4.1458.61715v6.17146c0 .3771-.1348.7001-.4043.9689s-.593.4029-.9707.4025h-2.75c-.19479 0-.35796-.0658-.4895-.1975s-.19754-.2944-.198-.4882v-3.42859h-1.375v3.42859c0 .1943-.066.3572-.198.4889-.132.1316-.29517.1972-.4895.1968h-2.75c-.378125 0-.701709-.1342-.97075-.4025-.269042-.2684-.40379167-.5913-.40425-.9689z" fill="#fff"/></svg>

<svg width="11" height="13" viewBox="0 0 11 13" fill="none" xmlns="http://www.w3.org/2000/svg">
<path d="M1.375 11.5585H3.4375V8.12989C3.4375 7.93561 3.5035 7.77286 3.6355 7.64166C3.7675 7.51046 3.93067 7.44463 4.125 7.44418H6.875C7.06979 7.44418 7.23319 7.51001 7.36519 7.64166C7.49719 7.77332 7.56296 7.93606 7.5625 8.12989V11.5585H9.625V5.38704L5.5 2.30132L1.375 5.38704V11.5585ZM0 11.5585V5.38704C0 5.16989 0.0488124 4.96418 0.146437 4.76989C0.244062 4.57561 0.378583 4.41561 0.55 4.28989L4.675 1.20418C4.91562 1.02132 5.19062 0.929893 5.5 0.929893C5.80937 0.929893 6.08437 1.02132 6.325 1.20418L10.45 4.28989C10.6219 4.41561 10.7566 4.57561 10.8542 4.76989C10.9519 4.96418 11.0005 5.16989 11 5.38704V11.5585C11 11.9356 10.8652 12.2586 10.5957 12.5274C10.3262 12.7962 10.0027 12.9303 9.625 12.9299H6.875C6.68021 12.9299 6.51704 12.8641 6.3855 12.7324C6.25396 12.6007 6.18796 12.438 6.1875 12.2442V8.81561H4.8125V12.2442C4.8125 12.4385 4.7465 12.6014 4.6145 12.7331C4.4825 12.8647 4.31933 12.9303 4.125 12.9299H1.375C0.996875 12.9299 0.673291 12.7957 0.40425 12.5274C0.135208 12.259 0.000458333 11.9361 0 11.5585Z" fill="white"/>
</svg>
